X: 20641
T: The Battle of Falkirk
%R: march, jig, waltz
B: James Oswald "The Caledonian Pocket Companion" v.2 p.64
Z: 2019 John Chambers <jc:trillian.mit.edu>
M: 3/4
L: 1/8
K: G
|: "_Slow"\
G3 G/G/ G2 | B3 B/B/ B2 | c3 A/A/ A2 | F3 D/D/D2 |\
G3 E/E/E2 | A3 F/F/F2 | .G2 .G2 .G2 | G4 :: g2 |\
d3 B/B/ B2 | B4 g2 |
c3 A/A/ A2 | A4 g2 |\
B3 G/G/ G2 | A3 E/E/ E2 | .G2 .G2 .G2 | G4 ::[M:6/8] "_Brisk" g |\
(TB2G) (TA2G) | (TB2G) (TA2g) | (TB2G) (TA2G) | TA2G G2 :|
|: g |\
Te2d Bdd | Te2d Agg | Te2d BGG | AEE G2 :: g |\
G(B/c/)d B(e/f/)g | G(B/c/)d A(g/a/)b | G(B/c/)d B(e/f/)g | EEE G2 :|
|: g |\
dB/B/B B2g | dA/A/A A2g | dB/B/B B2 g | AG/G/G G2 :: g |\
GGg AAg | BBg AAg | GGg AAg | BBg G2 :|
|: g |\
eeg ddg | BBg AAg | eeg BBg | AAg G2 ::[M:3/4] "_Slow" g2 |\
(ed) B2 g2 | (ed) A2 g2 | (ed) B2 g2 | (ed) G2 :|
|: g2 |\
(ed) g2 B2 | (ed) g2 A2 | (ed) g2 B2 | (ed) G2 :|\
|: g2 |\
(bg) d2 B2 | (bg) c2 A2 | (bg) d2 B2 | (ed) G2 :: E2 |\
(DE) G2 A2 | (Bd) A2 g2 |
(ed) B2 D2 | (EA) G2 :: g2 |\
(bg) a2 g2 | (bg) e2 d2 | (bg) a2 g2 | ea g2 :: |\
b2 (ag) e2 d2 | BG A2 b2 | ag e2 g2 | AB G2 :|


